X:1
T:Title
%%score { ( 1 3 ) | ( 2 4 ) }
L:1/8
M:4/4
K:A
V:1 treble nm="Grand Piano"
V:3 treble 
V:2 bass 
V:4 bass 
V:1
 z4 z2[Q:1/4=100] [CE]2 | [Ec]2 [Ec]2 [Fd]3 [Ec] | [Fc][FB][FA][DF] [CE]4 | AA A>A A2 [^DG]>[DA] | %4
 [EB]6 [DE]2 | [Cc]2 [Ec]2 [Fd]3 [Ec] | [Fc][FB][FA][DF] [CE]4 | %7
 [CA][CA] [EA]>[FB] [Ec]2 [DGB]>[CA] | [CEA]6 [C=GA]2 | [DFA]2 [Fd]2 [Fd]3 [DF] | %10
 [CE]2 [Ec]2 [Ec]3 [Ec] | [EB][EB] [EB]>[EB] BG[B,FA][A,^DF] | E6 z2 | [Cc]2 [Ec]2 [Fd]3 [Ec] | %14
 [Fc][FB][FA][DF] [CE]4 | [CA][CA] [EA]>[FB] [Ec]2 [DGB]>[CA] |[M:3/4] [CEA]6 |] %17
V:2
 z4 z2 [A,,A,]2 | [A,,A,]2 [A,,A,]2 [A,,A,]3 [A,,A,] | [D,A,][D,A,][D,A,][D,A,] [A,,A,]4 | %3
 [F,A,C][F,A,C] [F,A,C]>[F,A,C] [F,A,C]2 [B,,B,]>[B,,A,] | [E,G,]6 [E,G,]2 | %5
 [A,,A,]2 [A,,A,]2 [A,,A,]3 [A,,A,] | [D,A,][D,A,][D,A,][D,A,] [A,,A,]4 | %7
 [F,A,][F,A,] [C,A,]>[D,A,] [E,A,]2 E,>A,, | A,,6 A,,2 | D,2 [D,A,]2 [D,A,]3 [D,A,] | %10
 [A,,A,]2 [A,,A,]2 [A,,A,]3 [A,,A,] | [B,,G,][B,,G,] [B,,G,]>[B,,G,] G,B,B,,B,, | %12
 z2 A,2 B,2 [E,G,D]2 | [A,,A,]2 [A,,A,]2 [A,,A,]3 [A,,A,] | [D,A,][D,A,][D,A,][D,A,] [A,,A,]4 | %15
 [F,A,][F,A,] [C,A,]>[D,A,] [E,A,]2 E,>A,, |[M:3/4] A,,6 |] %17
V:3
 x8 | x8 | x8 | x8 | x8 | x8 | x8 | x8 | x8 | x8 | x8 | z4 E2 z2 | G,2 C2 D2 E2 | x8 | x8 | x8 | %16
[M:3/4] x6 |] %17
V:4
 x8 | x8 | x8 | x8 | x8 | x8 | x8 | x8 | x8 | x8 | x8 | z4 B,,2 z2 | E,6 z2 | x8 | x8 | x8 | %16
[M:3/4] x6 |] %17

